X:2005
T:Boys of Portaferry, The
T:Sporting Boys, The
T:Pullet, The
R:reel
D:Planxty
Z:id:hn-reel-215
M:C|
K:G
G2BG AGBA|G2BG GEDE|G2BG A2Bc|1 dBGB c2BA:|2 dBAB G3A||
|:(3Bcd gd edgd|(3Bcd gd e2dc|(3Bcd gd edef|1 gedB c2BA:|2 gedB c2BA||
